tn/plug.svg

<svg viewBox="0 0 15 15" fill="none" xmlns="http://www.w3.org/2000/svg" height="1em" width="1em">
  <path d="M10 4H5V0H4v4H2v4h1v1.5A2.5 2.5 0 0 0 5.5 12H6v3h1v-3h1v3h1v-3h.5A2.5 2.5 0 0 0 12 9.5V8h1V4h-2V0h-1v4Z" fill="#000"/>
</svg>

<svg viewBox="0 0 15 15" fill="none" xmlns="http://www.w3.org/2000/svg" height="1em" width="1em">
  <path d="M10 4H5V0H4V4H2V8H3V9.5C3 10.8807 4.11929 12 5.5 12H6V15H7V12H8V15H9V12H9.5C10.8807 12 12 10.8807 12 9.5V8H13V4H11V0H10V4Z" fill="black"/>
</svg>
